app/assets/images/heroicons/micro/envelope-open.svg

<svg width="16" height="16" viewBox="0 0 16 16" fill="none" xmlns="http://www.w3.org/2000/svg">
<path fill-rule="evenodd" clip-rule="evenodd" d="M1.75579 4.56815C1.28843 4.83522 1 5.33223 1 5.87052V12.5C1 13.3285 1.67157 14 2.5 14H13.5C14.3284 14 15 13.3285 15 12.5V5.87052C15 5.33223 14.7116 4.83522 14.2442 4.56815L8.74421 1.4253C8.28306 1.16178 7.71694 1.16178 7.25579 1.4253L1.75579 4.56815ZM3.57526 7.53085C3.20224 7.35077 2.75386 7.50718 2.57378 7.8802C2.3937 8.25322 2.55011 8.7016 2.92313 8.88168L7.02205 10.8605C7.64005 11.1588 8.36042 11.1588 8.97842 10.8605L13.0773 8.88168C13.4504 8.7016 13.6068 8.25322 13.4267 7.8802C13.2466 7.50718 12.7982 7.35077 12.4252 7.53085L8.3263 9.50963C8.1203 9.60908 7.88017 9.60908 7.67417 9.50963L3.57526 7.53085Z" fill="#333333"/>
</svg>

<svg xmlns="http://www.w3.org/2000/svg" viewBox="0 0 16 16" fill="currentColor" aria-hidden="true" data-slot="icon">
  <path fill-rule="evenodd" d="M1.756 4.568A1.5 1.5 0 0 0 1 5.871V12.5A1.5 1.5 0 0 0 2.5 14h11a1.5 1.5 0 0 0 1.5-1.5V5.87a1.5 1.5 0 0 0-.756-1.302l-5.5-3.143a1.5 1.5 0 0 0-1.488 0l-5.5 3.143Zm1.82 2.963a.75.75 0 0 0-.653 1.35l4.1 1.98a2.25 2.25 0 0 0 1.955 0l4.1-1.98a.75.75 0 1 0-.653-1.35L8.326 9.51a.75.75 0 0 1-.652 0L3.575 7.53Z" clip-rule="evenodd"/>
</svg>
